source/img/about-us/html.svg

<svg width="44" height="31" viewBox="0 0 44 31" fill="none" xmlns="http://www.w3.org/2000/svg">
<path d="M41.9534 0H1.14453C0.538313 0 0.046875 0.491671 0.046875 1.09818V29.5716C0.046875 30.1782 0.538313 30.6698 1.14453 30.6698H41.9534C42.5596 30.6698 43.051 30.1782 43.051 29.5716V1.09818C43.051 0.49167 42.5596 0 41.9534 0Z" fill="url(#paint0_linear)"/>
<path d="M10.8438 13C11 13 11.1354 13.0573 11.25 13.1719C11.3646 13.2865 11.4219 13.4271 11.4219 13.5938V21.4844C11.4219 21.6406 11.3646 21.776 11.25 21.8906C11.1354 22.0052 11 22.0625 10.8438 22.0625C10.6875 22.0625 10.5521 22.0052 10.4375 21.8906C10.3229 21.776 10.2656 21.6406 10.2656 21.4844V18.0938H5.40625V21.4844C5.40625 21.6406 5.34896 21.776 5.23438 21.8906C5.11979 22.0052 4.97917 22.0625 4.8125 22.0625C4.65625 22.0625 4.52083 22.0052 4.40625 21.8906C4.29167 21.776 4.23438 21.6406 4.23438 21.4844V13.5938C4.23438 13.4375 4.29167 13.3021 4.40625 13.1875C4.52083 13.0625 4.65625 13 4.8125 13C4.96875 13 5.10417 13.0573 5.21875 13.1719C5.34375 13.2865 5.40625 13.4271 5.40625 13.5938V17H10.2656V13.5938C10.2656 13.4375 10.3229 13.3021 10.4375 13.1875C10.5521 13.0625 10.6875 13 10.8438 13Z" fill="white"/>
<path d="M19.75 13.0625C19.9062 13.0625 20.0365 13.1198 20.1406 13.2344C20.2448 13.3385 20.2969 13.4635 20.2969 13.6094C20.2969 13.7552 20.2448 13.8854 20.1406 14C20.0365 14.1042 19.9062 14.1562 19.75 14.1562H17.1406V21.4844C17.1406 21.6406 17.0833 21.776 16.9688 21.8906C16.8646 22.0052 16.7292 22.0625 16.5625 22.0625C16.4062 22.0625 16.2708 22.0052 16.1562 21.8906C16.0417 21.776 15.9844 21.6406 15.9844 21.4844V14.1562H13.375C13.2292 14.1562 13.099 14.1042 12.9844 14C12.8802 13.8958 12.8281 13.7656 12.8281 13.6094C12.8281 13.4635 12.8802 13.3385 12.9844 13.2344C13.0885 13.1198 13.2188 13.0625 13.375 13.0625H19.75Z" fill="white"/>
<path d="M30.75 13C30.9896 13 31.1875 13.0833 31.3438 13.25C31.5104 13.4167 31.5938 13.6146 31.5938 13.8438V21.4844C31.5938 21.6406 31.5365 21.776 31.4219 21.8906C31.3073 22.0052 31.1719 22.0625 31.0156 22.0625C30.8594 22.0625 30.724 22.0052 30.6094 21.8906C30.4948 21.776 30.4375 21.6406 30.4375 21.4844V14.2188L27.4688 21.5312C27.4062 21.6875 27.3021 21.8177 27.1562 21.9219C27.0104 22.0156 26.8438 22.0625 26.6562 22.0625C26.4688 22.0625 26.3021 22.0156 26.1562 21.9219C26.0104 21.8281 25.901 21.6979 25.8281 21.5312L22.875 14.2188V21.4844C22.875 21.6406 22.8177 21.776 22.7031 21.8906C22.5885 22.0052 22.4479 22.0625 22.2812 22.0625C22.125 22.0625 21.9896 22.0052 21.875 21.8906C21.7604 21.776 21.7031 21.6406 21.7031 21.4844V13.8438C21.7031 13.6146 21.7812 13.4167 21.9375 13.25C22.1042 13.0833 22.3073 13 22.5469 13H22.9688C23.1354 13 23.2865 13.0521 23.4219 13.1562C23.5677 13.2604 23.6771 13.3854 23.75 13.5312L26.6562 20.7812L29.5625 13.5312C29.625 13.3854 29.724 13.2604 29.8594 13.1562C30.0052 13.0521 30.1667 13 30.3438 13H30.75Z" fill="white"/>
<path d="M39.4219 20.8438C39.5885 20.8438 39.724 20.901 39.8281 21.0156C39.9427 21.1198 40 21.2552 40 21.4219C40 21.5781 39.9427 21.7135 39.8281 21.8281C39.724 21.9427 39.5885 22 39.4219 22H34.875C34.6458 22 34.4531 21.9219 34.2969 21.7656C34.1406 21.6094 34.0625 21.4167 34.0625 21.1875V13.5938C34.0625 13.4375 34.1198 13.3021 34.2344 13.1875C34.349 13.0625 34.4844 13 34.6406 13C34.7969 13 34.9323 13.0573 35.0469 13.1719C35.1719 13.2865 35.2344 13.4271 35.2344 13.5938V20.8438H39.4219Z" fill="white"/>
<path d="M43.3887 4.55458C43.3887 4.6269 33.6814 4.69119 21.71 4.69119C9.7385 4.69119 0.03125 4.6269 0.03125 4.55458C0.03125 4.48226 9.7385 4.41797 21.71 4.41797C33.6814 4.41797 43.3887 4.50636 43.3887 4.55458Z" fill="white"/>
<path d="M8.92661 3.03313C9.35854 3.03313 9.70869 2.72649 9.70869 2.34823C9.70869 1.96997 9.35854 1.66333 8.92661 1.66333C8.49468 1.66333 8.14453 1.96997 8.14453 2.34823C8.14453 2.72649 8.49468 3.03313 8.92661 3.03313Z" fill="white"/>
<path d="M5.702 3.03313C6.13393 3.03313 6.48408 2.72649 6.48408 2.34823C6.48408 1.96997 6.13393 1.66333 5.702 1.66333C5.27007 1.66333 4.91992 1.96997 4.91992 2.34823C4.91992 2.72649 5.27007 3.03313 5.702 3.03313Z" fill="white"/>
<path d="M2.47739 3.03313C2.90932 3.03313 3.25947 2.72649 3.25947 2.34823C3.25947 1.96997 2.90932 1.66333 2.47739 1.66333C2.04546 1.66333 1.69531 1.96997 1.69531 2.34823C1.69531 2.72649 2.04546 3.03313 2.47739 3.03313Z" fill="white"/>
<defs>
<linearGradient id="paint0_linear" x1="41.7254" y1="15.3349" x2="1.33734" y2="14.119" gradientUnits="userSpaceOnUse">
<stop stop-color="#A62E41"/>
<stop offset="1" stop-color="#E13152"/>
</linearGradient>
</defs>
</svg>

<svg width="44" height="31" fill="none" xmlns="http://www.w3.org/2000/svg"><path d="M41.953 0H1.145C.538 0 .047.492.047 1.098v28.474c0 .606.491 1.098 1.098 1.098h40.808c.607 0 1.098-.492 1.098-1.098V1.098C43.051.492 42.56 0 41.953 0z" fill="url(#paint0_linear)"/><path d="M10.844 13c.156 0 .291.057.406.172a.574.574 0 01.172.422v7.89a.555.555 0 01-.172.407.555.555 0 01-.406.172.555.555 0 01-.406-.172.555.555 0 01-.172-.407v-3.39h-4.86v3.39a.555.555 0 01-.172.407.574.574 0 01-.421.172.555.555 0 01-.407-.172.555.555 0 01-.172-.407v-7.89c0-.156.058-.292.172-.406A.534.534 0 014.813 13c.156 0 .291.057.406.172a.55.55 0 01.187.422V17h4.86v-3.406c0-.156.057-.292.171-.406a.534.534 0 01.407-.188zm8.906.063c.156 0 .287.057.39.171a.51.51 0 01.157.375.565.565 0 01-.156.391.53.53 0 01-.391.156h-2.61v7.328a.556.556 0 01-.171.407.524.524 0 01-.407.172.555.555 0 01-.406-.172.556.556 0 01-.172-.407v-7.328h-2.609a.565.565 0 01-.39-.156.53.53 0 01-.157-.39c0-.146.052-.271.156-.376a.506.506 0 01.391-.171h6.375zm11-.063c.24 0 .438.083.594.25.166.167.25.365.25.594v7.64a.555.555 0 01-.172.407.555.555 0 01-.406.172.555.555 0 01-.407-.172.555.555 0 01-.172-.407V14.22l-2.967 7.31a.873.873 0 01-.313.39.904.904 0 01-.5.142.905.905 0 01-.5-.141.864.864 0 01-.328-.39l-2.953-7.313v7.265a.555.555 0 01-.172.407.574.574 0 01-.422.172.555.555 0 01-.406-.172.555.555 0 01-.172-.407v-7.64a.83.83 0 01.844-.844h.422c.166 0 .317.052.453.156.146.104.255.23.328.375l2.906 7.25 2.907-7.25a.934.934 0 01.296-.375.815.815 0 01.485-.156h.406zm8.672 7.844c.167 0 .302.057.406.172.115.104.172.24.172.406a.555.555 0 01-.172.406.523.523 0 01-.406.172h-4.547a.785.785 0 01-.578-.234.785.785 0 01-.234-.578v-7.594c0-.156.057-.292.171-.406a.534.534 0 01.407-.188c.156 0 .291.057.406.172a.55.55 0 01.187.422v7.25h4.188zm3.967-16.289c0 .072-9.708.136-21.679.136C9.738 4.691.031 4.627.031 4.555c0-.073 9.707-.137 21.679-.137 11.971 0 21.679.088 21.679.137zM8.927 3.033c.432 0 .782-.307.782-.685 0-.378-.35-.685-.782-.685-.432 0-.782.307-.782.685 0 .378.35.685.782.685zm-3.225 0c.432 0 .782-.307.782-.685 0-.378-.35-.685-.782-.685-.432 0-.782.307-.782.685 0 .378.35.685.782.685zm-3.225 0c.432 0 .782-.307.782-.685 0-.378-.35-.685-.782-.685-.432 0-.782.307-.782.685 0 .378.35.685.782.685z" fill="#fff"/><defs><linearGradient id="paint0_linear" x1="41.725" y1="15.335" x2="1.337" y2="14.119" gradientUnits="userSpaceOnUse"><stop stop-color="#A62E41"/><stop offset="1" stop-color="#E13152"/></linearGradient></defs></svg>
